X:3587
L:1/16
M:2/4
K:G
 G2G2 BdBA | GBAG BDd2 | G2G2 BdBA | GBAG EGD2 | G2G2 BdBA | GBAG B2d2 | g2ed BdBA | GBAG E2G2 || 
 GABc d2dB | dged B2d2 | dged BdBA | GBAG E2D2 | GABc dedB | dged B2d2 | g2ed BdBA | GBAG EFG2 || 
 g2>a2 g2>d2 | gfed B2d2 | g2gf gage | dBAG E2G2 | g4 gfga | bgag edef | gage dcBA | GBAG E2G2 ||

